X: 14099
T: Friel Deal, The
R: reel
M: 4/4
K: Dmajor
dB|:ADD/D/D FAde|f/g/aec dB AF|GEE/E/E FDD/D/D|E2A,B, CDEG|
F/G/AEG FDFA|dcde f/g/aeF|GEFD EA,CE|1 FDECD2dB:|2 FDECD2 dc||
B3c dBB/B/B|fB^gB afed|cAA/A/A EAA/A/A|cAA/A/A cfec|
B3c dBB/B/B|fB^gB afed|caec dfec|dBcA BAFA|
B3c dBB/B/B|fB^gB afed|c2ec Acec|fcec dcBc|
^dBB/B/B cAA/A/A|BGG/G/G AFF/F/F|GEFD EA,CE|FDECD2||

